X: 1
T: Ridhe Mo Nigheen Donn
M: 4/4
L: 1/8
R: reel
K: Dmaj
|:d2 cd BAFA|BAFE DF A2|d2 cd BAFA|1EBBA  B2c2:|2EBBA ~B3 B||
AD (3DDD AD F2|BAFE DF A2|1AD (3DDD AD F2|
EBBA ~B3 B:|2 d2 cd BAFA|EBBA B2c2||
